X:106
T:Pigornas Michaelidans
T:Pigornas Michaelidans och dr\"angarnas dito
T:Polska fr{\aa}n Skatel\"ov
R:sl\"angpolska
H:jfr #26, #91.
A:Sm{\aa}land, Blekinge
B:Version 1: Svl Sml 156 efter J Dahl, Skatel\"ov.
B:Version 2: Trad Sv Folkd nr 32
B:Version 3: Sm{\aa}l\"andska mus.trad. I:214 efter Carl-Gustaf Tullberg, H\"ogahult, N\"obbele.
Z:id:hn-sp-106
M:3/4
L:1/16
K:Am
e2eB c2cA B2B^G | E2E^G A2AB cBcd | e2eB c2cA B2B^G | E^GBG B2A2 A2z2 :|
|: ABcd e2e2 c4 | c2e2 f2ef d4 | dBGB dBGB dBGB | cBcd e2e2 e2e2 |
e2eB c2cA B2B^G | E2E^G A2AB cBcd | e2eB c2cA B2B^G | E^GBG B2A2 A2z2 :|
P:version 2
|: e2eB c2cA B2B^G | E2E^G AGAB cBcd | e2eB c2cA B2B^G | E2E^G A8 :|
|: c3d e4 g4 | e2e2 e2de d4 | B2Bc d2dB d2dB | cBcd edcB c4 |
e2eB c2cA B2B^G | E2E^G AGAB cBcd | e2eB c2cA B2B^G | E2E^G A8 :|
P:version 3
|: e2eB c2cA B2BG | E2EF G2GA B2Bc | e2eB c2cA B2BG | E2FG A8 :|
|: [M:2/4] cBcd e2g2 |[M:3/4] gfef gfef d2z2 |[M:2/4] dBGc d3d |[M:3/4]
f2ef gfed e4 | e2eB c2cA B2BG | E2EF G2GA B2Bc | e2eB c2cA B2BG | E2FG A8 :|
<end>
<start>
